.local/share/icons/Gruvbox-Plus-Dark/status/symbolic/keyboard-brightness-symbolic.svg

<svg xmlns="http://www.w3.org/2000/svg" width="16" height="16" version="1.1">
 <path style="fill:#ebdbb2" d="M 5.5,9 C 5.223,9 5,9.223 5,9.5 V 12 H 11 V 9.5 C 11,9.223 10.777,9 10.5,9 Z"/>
 <path style="fill:#ebdbb2" d="M 3,12 V 10 L 0,11 Z"/>
 <path style="fill:#ebdbb2" d="M 7,6 H 9 L 8,3 Z"/>
 <path style="fill:#ebdbb2" d="M 13,10 V 12 L 16,11 Z"/>
 <path style="fill:#ebdbb2" d="M 10.825,6.756 12.239,8.1703 13.654,5.3418 Z"/>
 <path style="fill:#ebdbb2" d="M 3.7605,8.1703 5.1748,6.756 2.3463,5.3418 Z"/>
</svg>

<svg width="16" height="16" version="1.1" xmlns="http://www.w3.org/2000/svg">
  <defs>
    <style id="current-color-scheme" type="text/css">.ColorScheme-Text { color:#ebdbb2; } .ColorScheme-Highlight { color:#458588; } .ColorScheme-NeutralText { color:#fe8019; } .ColorScheme-PositiveText { color:#689d6a; } .ColorScheme-NegativeText { color:#fb4934; }</style>
  </defs>
  <path class="ColorScheme-Text" fill="currentColor" d="m8 3-1 3h2l-1-3zm-5.654 2.342 1.414 2.828 1.414-1.414-2.828-1.414zm11.31 0-2.83 1.414 1.414 1.414 1.416-2.828zm-8.154 3.658c-0.277 0-0.5 0.223-0.5 0.5v2.5h6v-2.5c0-0.277-0.223-0.5-0.5-0.5h-5zm-2.5 1-3 1 3 1v-2zm10 0v2l3-1-3-1z"/>
</svg>
